X: 3195
T: Beehive, The
R: reel
M: 4/4
K: Edorian
|Beed B2 ef|g2 bg ag fg|Begb agfg|e2 feed BA|
Beed B2 ef|g2 bg ag fg|eeed Bcde|EFAB FEED:|
|:AAAA FE F/G/A|Beed B2 ef|feed edBA|Beed B2 ef|
feed edBA|BBBc dcde|fffe dBAF|EFAB FEED:|

